Simply-Black-Circles/scalable/animations/nm-stage01-connecting07.svg

<svg xmlns="http://www.w3.org/2000/svg" width="48" height="48"><path fill="#ccc" d="M23.707 6.002a18 18 0 0 0-13.988 7.041 18 18 0 0 0-.463 21.281 18 18 0 0 0 20.156 6.842A18 18 0 0 0 42 24h-4a14 14 0 0 1-14 14 14 14 0 0 1-14-14 14 14 0 0 1 14-14 14 14 0 0 1 4.783.861l1.373-3.775a18 18 0 0 0-6.449-1.084z"/></svg>

<?xml version="1.0" encoding="UTF-8" standalone="no"?>
<svg
   xmlns:dc="http://purl.org/dc/elements/1.1/"
   xmlns:cc="http://creativecommons.org/ns#"
   xmlns:rdf="http://www.w3.org/1999/02/22-rdf-syntax-ns#"
   xmlns:svg="http://www.w3.org/2000/svg"
   xmlns="http://www.w3.org/2000/svg"
   xmlns:sodipodi="http://sodipodi.sourceforge.net/DTD/sodipodi-0.dtd"
   xmlns:inkscape="http://www.inkscape.org/namespaces/inkscape"
   width="48"
   height="48"
   version="1.1"
   id="svg4"
   sodipodi:docname="nm-stage01-connecting07.svg"
   inkscape:version="0.92.4 (5da689c313, 2019-01-14)">
  <metadata
     id="metadata10">
    <rdf:RDF>
      <cc:Work
         rdf:about="">
        <dc:format>image/svg+xml</dc:format>
        <dc:type
           rdf:resource="http://purl.org/dc/dcmitype/StillImage" />
        <dc:title></dc:title>
      </cc:Work>
    </rdf:RDF>
  </metadata>
  <defs
     id="defs8" />
  <sodipodi:namedview
     pagecolor="#ffffff"
     bordercolor="#666666"
     borderopacity="1"
     objecttolerance="10"
     gridtolerance="10"
     guidetolerance="10"
     inkscape:pageopacity="0"
     inkscape:pageshadow="2"
     inkscape:window-width="1087"
     inkscape:window-height="480"
     id="namedview6"
     showgrid="false"
     inkscape:zoom="4.9166667"
     inkscape:cx="2.1355932"
     inkscape:cy="24"
     inkscape:window-x="0"
     inkscape:window-y="25"
     inkscape:window-maximized="0"
     inkscape:current-layer="svg4" />
  <path
     d="M 23.707,6.002 A 18,18 0 0 0 9.719,13.043 18,18 0 0 0 9.256,34.324 18,18 0 0 0 29.412,41.166 18,18 0 0 0 42,24 H 38 A 14,14 0 0 1 24,38 14,14 0 0 1 10,24 14,14 0 0 1 24,10 14,14 0 0 1 28.783,10.861 L 30.156,7.086 A 18,18 0 0 0 23.707,6.002 Z"
     id="path2"
     inkscape:connector-curvature="0"
     style="fill:#1a1a1a" />
</svg>
